frontend/src/assets/figma/logo-type.svg

<svg preserveAspectRatio="none" width="100%" height="100%" overflow="visible" style="display: block;" viewBox="0 0 325.102 86.4224" fill="none" xmlns="http://www.w3.org/2000/svg">
<g id="&#208;&#187;&#208;&#190;&#208;&#179;&#208;&#190; 2 " clip-path="url(#clip0_88_1120)">
<path id="Vector" d="M78.6223 64.6095C75.1189 52.0091 67.6622 41.0861 57.6749 33.2976C60.3043 30.0309 62.5899 26.478 64.4953 22.7012C66.6383 18.4509 67.8268 14.8063 68.4119 12.8426C69.3737 9.60168 70.3611 5.23761 70.7159 0C47.1463 0.0220222 23.5768 0.0477148 0 0.069737C0 28.6766 0.0109711 57.2834 0.0109711 85.8866H80.6118C80.7471 84.2312 80.8202 82.5502 80.8202 80.8545C80.8202 75.2242 80.0522 69.7773 78.6187 64.6095H78.626H78.6223ZM21.1083 64.6095V22.7012H38.3475C38.2013 22.8517 38.0513 22.9985 37.8977 23.1417C35.8132 25.1861 33.491 26.9919 30.9896 28.5041V52.266C34.4016 51.0695 37.6747 49.561 40.7685 47.7845C47.3182 51.7228 52.599 57.588 55.8391 64.6095H21.1083Z" fill="var(--fill-0, white)"/>
<path id="Vector_2" d="M325.102 74.9012C325.062 76.5859 324.97 78.3733 324.806 80.2489C324.623 82.2969 324.374 84.2276 324.085 86.026H302.776C302.995 84.9763 303.193 83.8679 303.357 82.697C303.452 82.018 303.533 81.3537 303.595 80.7113C303.595 80.7113 303.942 77.6172 303.942 74.9012C303.942 52.0935 291.344 31.3266 272.295 22.8113V86.026H251.234V0H270.996C298.969 6.01573 314.72 32.7323 319.862 46.1659C320.458 47.7258 322.22 53.9397 323.672 61.5924C324.228 64.5214 324.901 68.0523 325.062 72.5888C325.095 73.5578 325.102 74.3579 325.098 74.9048L325.102 74.9012Z" fill="var(--fill-0, white)"/>
<path id="Vector_3" d="M156.521 0.00734073C154.666 2.02604 153.346 3.92362 152.436 5.39544C151.774 6.46718 150.783 8.08949 149.89 10.3908C148.969 12.7692 148.632 14.6264 148.311 16.3992C147.48 21.0018 147.641 24.5401 147.733 25.9018C147.788 26.7423 147.864 27.4286 147.923 27.8911H132.483C132.75 25.5237 133.043 23.3435 133.353 20.9174H114.121V85.8939H92.8884V8.57764H92.8957V0H140.448L156.521 0.00734073Z" fill="var(--fill-0, white)"/>
<path id="Vector_4" d="M189.273 0C190.663 14.9898 200.584 27.4984 214.111 32.5782V0.0660666H235.245V62.5357L235.395 62.4623V82.3924L234.049 82.8659C233.036 83.2219 232.005 83.5596 230.948 83.8715C229.687 84.2533 228.425 84.5799 227.167 84.8699C224.249 85.5416 221.323 85.9857 218.416 86.2206C216.971 86.338 215.53 86.4078 214.089 86.4188C213.709 86.4224 213.329 86.4224 212.952 86.4188C212.718 86.4188 212.433 86.4188 212.14 86.4041C206.823 86.2903 201.601 85.4718 196.587 84.0257C196.309 83.9486 196.031 83.8679 195.738 83.7724C194.934 83.5375 194.151 83.2769 193.402 83.0163H193.394L193.387 83.009C192.926 82.8438 192.465 82.6787 191.997 82.5062C189.522 81.5849 187.152 80.4508 185.415 79.5589C184.544 79.1111 183.824 78.7183 183.319 78.4357C183.067 78.2962 182.869 78.1825 182.73 78.1017C182.661 78.0613 182.61 78.032 182.573 78.01C182.555 77.9989 182.54 77.9916 182.529 77.9843C182.526 77.9843 182.522 77.9806 182.518 77.9769L182.047 77.698C177.19 74.7947 173.482 71.6272 171.2 69.491L169.397 67.8063L171.405 66.3712C173.325 64.9985 175.303 63.5194 177.314 61.9227L177.991 61.3832C179.556 60.1279 181.045 58.88 182.456 57.6468L183.758 56.5126L185.075 57.6284C188.183 60.2674 191.913 62.7669 196.349 64.6902L196.781 64.8737C197.249 65.0719 197.724 65.2591 198.214 65.4463H198.233L198.342 65.4903C198.854 65.6849 199.381 65.8684 199.929 66.0482C200.061 66.0923 200.171 66.1253 200.277 66.162L200.595 66.2611L200.628 66.2685L200.657 66.2795L200.979 66.3822C201.195 66.4483 201.414 66.5144 201.634 66.5731L201.966 66.6649H201.977L201.988 66.6722C202.826 66.9071 203.667 67.1163 204.512 67.2925L204.874 67.3659H204.877H204.881C207.298 67.8577 209.767 68.1514 212.265 68.2211C212.879 68.2358 213.497 68.2394 214.119 68.2321V54.8867C188.717 49.0251 169.503 26.9001 167.901 0H189.269H189.273Z" fill="var(--fill-0, white)"/>
</g>
<defs>
<clipPath id="clip0_88_1120">
<rect width="325.102" height="86.4224" fill="white"/>
</clipPath>
</defs>
</svg>

<svg xmlns="http://www.w3.org/2000/svg" fill="none" overflow="visible" preserveAspectRatio="none" style="display:block" viewBox="0 0 325.102 86.422"><g fill="var(--fill-0, white)" clip-path="url(#a)"><path d="M78.622 64.61a60.17 60.17 0 0 0-20.947-31.312 60 60 0 0 0 10.737-20.455A59.2 59.2 0 0 0 70.716 0C47.146.022 23.576.048 0 .07c0 28.607.011 57.213.011 85.817h80.6c.136-1.656.21-3.337.21-5.032a60.7 60.7 0 0 0-2.202-16.246h.007zm-57.514 0V22.7h17.24q-.22.225-.45.44a37.8 37.8 0 0 1-6.908 5.363v23.762a58.6 58.6 0 0 0 9.779-4.481 38.45 38.45 0 0 1 15.07 16.825zm303.994 10.291a84 84 0 0 1-.296 5.348 83 83 0 0 1-.721 5.777h-21.309a51 51 0 0 0 .819-5.315s.347-3.094.347-5.81c0-22.807-12.598-43.574-31.647-52.09v63.215h-21.061V0h19.762c27.973 6.016 43.724 32.732 48.866 46.166.596 1.56 2.358 7.774 3.81 15.426.556 2.93 1.229 6.46 1.39 10.997.033.969.04 1.769.036 2.316zM156.521.007a35.7 35.7 0 0 0-4.085 5.388c-.662 1.072-1.653 2.694-2.546 4.996-.921 2.378-1.258 4.235-1.579 6.008-.831 4.603-.67 8.141-.578 9.503.055.84.131 1.527.19 1.99h-15.44c.267-2.368.56-4.549.87-6.975h-19.232v64.977H92.888V8.578h.008V0h47.552zM189.273 0c1.39 14.99 11.311 27.498 24.838 32.578V.066h21.134v62.47l.15-.074v19.93l-1.346.474a64 64 0 0 1-3.101 1.005 61 61 0 0 1-12.532 2.35 59 59 0 0 1-5.464.198c-.234 0-.519 0-.812-.015a60.8 60.8 0 0 1-15.553-2.378 20 20 0 0 1-.849-.254 49 49 0 0 1-2.336-.756h-.008l-.007-.007c-.461-.165-.922-.33-1.39-.503-2.475-.921-4.845-2.055-6.582-2.947a68 68 0 0 1-2.685-1.457l-.157-.092-.044-.026q-.005 0-.011-.007l-.471-.279c-4.857-2.903-8.565-6.07-10.847-8.207l-1.803-1.685 2.008-1.435a147 147 0 0 0 5.909-4.448l.677-.54a138 138 0 0 0 4.465-3.736l1.302-1.134 1.317 1.115c3.108 2.64 6.838 5.139 11.274 7.062l.432.184c.468.198.943.385 1.433.572h.019l.109.044c.512.195 1.039.378 1.587.558.132.044.242.077.348.114l.318.1.033.007.029.01.322.103q.325.1.655.191l.332.092h.011l.011.007q1.257.354 2.524.62l.362.074h.007c2.417.492 4.886.785 7.384.855q.921.022 1.854.011V54.887C188.717 49.025 169.503 26.9 167.901 0z"/></g><defs><clipPath id="a"><path fill="#fff" d="M0 0h325.102v86.422H0z"/></clipPath></defs></svg>
